X:1
T:Title
%%score ( 1 2 ) { 3 | 4 }
L:1/8
Q:1/4=103
M:2/4
K:Eb
V:1 treble nm="Grand Piano, Soprano"
V:2 treble 
V:3 bass nm="Choir Pad, Paddington (Plymouth), SM"
V:4 bass 
V:1
 [EB]2 [Ee]2 | c2 z2 | [FA]2 [EG]2 | [EG]2 F2 | [GB]2 [GB]2 | =A2 z2 | B2 e2 | c2 z2 | .A2 z2 | %9
w: By~Anonymous,~1855 *|||||||||
 [Fd]2 [Ee]2 | [Ec]2 [EB]2 | EF [EG]2 | F2 z2 | z4 | z4 |] %15
w: ||||||
V:2
 x4 | EF [GB]2 | x4 | x4 | x4 | FE [DB]2 | DF EB | AG [FB]2 | E-[EG] [Ec]2 | x4 | x4 | x4 | %12
 ED E2- | E4- | E2 z2 |] %15
V:3
 G,A, B,2 | E2 E2 | ED E2 | B,2 B,C | DB, ED | C2[K:bass] B,2 | B,A, B,2 | C2[K:treble] D2 | %8
 ED C2 | B,[K:bass]A, G,2 | A,2 B,2 | =A,2 B,2 | A,B, G,2- | G,4- | G,2 z2 |] %15
V:4
 E,F, G,2 | A,2 B,2 | B,,2 E,2 | E,2 D,2 | G,2 C,2 | F,2 B,,2 | z2 G,2 | A,2 B,2 | CB, A,G, | %9
 F,2 C,2 | A,,2 G,,2 | C,2 G,,2 | B,,2 E,2- | E,4- | E,2 z2 |] %15

